X:1
T:Huachuca, CMD
T:James W. Miller, 1918
T:Huachuca, CMD
T:Public Domain
C:James W. Miller, 1918
Z:Public Domain
%%score ( 1 2 ) ( 3 4 )
L:1/8
M:4/4
K:C
V:1 treble 
V:2 treble 
V:3 bass 
V:4 bass 
V:1
 G2 | c3 G ECEG | c6 [EG]2 | [FA]2 [GB]2 [Ac]2 [Ad]2 | [Gd]6 G2 | c3 G AGAB | c6 [Fd]2 | %7
 [Ge]3 [Fd] [Ec]2 [FB]2 | [Ec]6 z2 | [EA]2 [EA]>[EB] [Ec][EB][EA][Ac] | [^Ge]6 z2 | %11
 A2 [EA]>[EB] [Ac]2 [Ad]2 | [^Ge]6 z2 | [Ge]2 [Ge]>[Fd] [Ec]2 [EG]2 | [FA]2 [GB]2 [Ac]2 [Ad]2 | %15
 [Ge]3 [Ec] [DB]2 [Fd]2 | [Ec]6 |] %17
V:2
 G2 | c3 G ECEG | c6 x2 | x8 | x6 G2 | c3 G AGAB | c6 x2 | x8 | x8 | x8 | x8 | A2 x6 | x8 | x8 | %14
 x8 | x8 | x6 |] %17
V:3
 G,2 | C3 G, E,C,E,G, | C6 [C,C]2 | [F,C]2 [F,C]2 [F,C]2 [^F,C]2 | [G,B,]6 G,2 | C3 G, A,G,A,B, | %6
 C6 [A,C]2 | [G,C]3 G, G,2 [G,,G,]2 | [C,G,]6 z2 | [A,C]2 [A,C]>[A,D] [A,E][A,D][A,C][A,C] | %10
 (z E,/^G,/ B,/C,/G,/B,/ E2) z2 | [A,C]2 [A,C]>[A,D] [A,E]2 [F,A,]2 | %12
 (z E,/^G,/ B,/E,/G,/B,/ E2) z2 | [C,C]2 [C,C]>[C,C] [C,C]2 [C,C]2 | [F,C]2 [F,C]2 [F,C]2 [^F,C]2 | %15
 [G,C]3 G, [G,,G,]2 [G,,G,]2 | [C,G,]6 |] %17
V:4
 G,2 | C3 G, E,C,E,G, | C6 x2 | x8 | x6 G,2 | C3 G, A,G,A,B, | C6 x2 | x3 G, G,2 x2 | x8 | x8 | %10
 [E,B,]6 x2 | x8 | [E,B,]6 x2 | x8 | x8 | x3 G, x4 | x6 |] %17

